!! 00000] TT[WS
!!!OTL: Wainiutizi
!!!ARE: Asia, China, Shanxi Dingxiang
!! Ethnic Group: Han
!! WII, 191
!!!SCT: J0689
!!!YEM: Copyright 1995, estate of Helmut Schaffrath.
**kern
*ICvox
*Ivox
*M2/4
*k[f#c#]
*D:
{8r
8a
8f#
8a
=1
8a
8b
4dd
=2
8dd
8b
8ff#
16ee
16ff#
=3
8dd
8b
4a}
=4
{8dd
8a
4dd
=5
8b
8a
8b
8a
=6
8a
8e
8f#
8e
=7
2d}
=8
{8b
8a
4b
=9
4b
8b
8cc#
=10
8dd
8cc#
8b
8a
=11
8f#
16e
16f#
4a}
=12
{8ee
8dd
8ee
8dd
=13
8b
4a
8f#
=14
8f#
8a
8b
8a
=15
8f#
4e
8e
=16
2d}
==
!!!AGN: Xiaodiao. Qingge
!!!ONB: ESAC (Essen Associative Code) Database: CHINA
!!!AMT: simple duple
!!!AIN: vox
!!!EED: Helmut Schaffrath
!!!EEV: 1.0
*-
